Sources/FrostedUI/Resources/Icons.xcassets/youtubeFilled20.imageset/you-tube-filled-20.svg

<svg
  width="20"
  height="20"
  viewBox="0 0 20 20"
  fill="none"
  xmlns="http://www.w3.org/2000/svg"
  data-fui-icon="true"
>
  <path
    d="M19.1758 5.64453C19.5977 7.12109 19.5977 10.2852 19.5977 10.2852C19.5977 10.2852 19.5977 13.4141 19.1758 14.9258C18.9648 15.7695 18.2969 16.4023 17.4883 16.6133C15.9766 17 10 17 10 17C10 17 3.98828 17 2.47656 16.6133C1.66797 16.4023 1 15.7695 0.789062 14.9258C0.367188 13.4141 0.367188 10.2852 0.367188 10.2852C0.367188 10.2852 0.367188 7.12109 0.789062 5.64453C1 4.80078 1.66797 4.13281 2.47656 3.92188C3.98828 3.5 10 3.5 10 3.5C10 3.5 15.9766 3.5 17.4883 3.92188C18.2969 4.13281 18.9648 4.80078 19.1758 5.64453ZM8.03125 13.1328L13.0234 10.2852L8.03125 7.4375V13.1328Z"
    fill="currentColor"
  />
</svg>

<svg xmlns="http://www.w3.org/2000/svg" width="20" height="20" fill="none" data-fui-icon="true" viewBox="0 0 20 20"><path fill="currentColor" d="M19.176 5.645c.422 1.476.422 4.64.422 4.64s0 3.13-.422 4.64a2.35 2.35 0 0 1-1.688 1.688C15.977 17 10 17 10 17s-6.012 0-7.523-.387a2.35 2.35 0 0 1-1.688-1.687c-.422-1.512-.422-4.64-.422-4.64s0-3.165.422-4.641a2.39 2.39 0 0 1 1.688-1.723C3.988 3.5 10 3.5 10 3.5s5.977 0 7.488.422c.809.21 1.477.879 1.688 1.723M8.03 13.133l4.992-2.848-4.992-2.847z"/></svg>
